X: 16
M: none
L: 1/8
K: Amix
(v[ee] |\
[ee])dcA B2(ued) | cAAc BuE- E (v[ee] | [ee])dcA B2(ued) | vc(uABu.^G) A2A2 :|
(ucd)eg fde(ud | TcA)Ac BuG- G(vB | c)deg fde(ud | cA)B^G A3(uA |
cd)eg fde(ud | c)AAc BuG- G(vB | c)de(uf ga)g(ue | dB)GB A2A2 |]
da wye da Forty Fiddlers play him.  Some say dis wis taen frae
played in Shetland a lang time.


